docs/public/svg/integrations/stencil.svg

<svg viewBox="0 0 97 20"><path d="m9.83761 14.0659h10.02059l-5.4167 5.9341h-9.96665z"/><path d="m26.25 7.03296h-20.58618l-5.41382 5.93404h20.5862z"/><path d="m12.0413 0h9.9836l-5.3917 5.93407h-9.9916z"/>&amp;gt;
</svg>

<?xml version="1.0" encoding="UTF-8"?>
<svg id="icon-logo" viewBox="0 0 97 20"> 
 <path d="M9.83761 14.0659H19.8582L14.4415 20H4.47485L9.83761 14.0659Z"></path>
<path d="M26.25 7.03296H5.66382L0.25 12.967H20.8362L26.25 7.03296Z"></path> <path d="M12.0413 0H22.0249L16.6332 5.93407H6.6416L12.0413 0Z"></path>&gt;
</svg>
